tetrification/src/assets/images/pageNotFound/piece_yellow.svg

<svg width="375" height="251" viewBox="0 0 375 251" fill="none" xmlns="http://www.w3.org/2000/svg">
<path d="M1.30566 241.644V133.953L8.95094 126.257H116.743L124.388 133.953V241.644L116.743 249.34H8.95095L1.30566 241.644Z" fill="#FBD73A" stroke="#C7961A" stroke-width="2"/>
<path d="M126.074 241.793V134.102L133.719 126.406H241.512L249.157 134.102V241.793L241.512 249.489H133.72L126.074 241.793Z" fill="#FBD73A" stroke="#C7961A" stroke-width="2"/>
<path d="M250.843 241.793V134.102L258.488 126.406H366.28L373.926 134.102V241.793L366.28 249.489H258.488L250.843 241.793Z" fill="#FBD73A" stroke="#C7961A" stroke-width="2"/>
<path d="M126.074 117.024V9.33312L133.719 1.63721H241.512L249.157 9.33312V117.024L241.512 124.72H133.72L126.074 117.024Z" fill="#FBD73A" stroke="#C7961A" stroke-width="2"/>
</svg>

<svg xmlns="http://www.w3.org/2000/svg" width="375" height="251" fill="none"><path fill="#FBD73A" stroke="#C7961A" stroke-width="2" d="M1.306 241.644V133.953l7.645-7.696h107.792l7.645 7.696v107.691l-7.645 7.696H8.951l-7.645-7.696ZM126.074 241.793V134.102l7.645-7.696h107.793l7.645 7.696v107.691l-7.645 7.696H133.72l-7.646-7.696ZM250.843 241.793V134.102l7.645-7.696H366.28l7.646 7.696v107.691l-7.646 7.696H258.488l-7.645-7.696ZM126.074 117.024V9.334l7.645-7.697h107.793l7.645 7.696v107.691l-7.645 7.696H133.72l-7.646-7.696Z"/></svg>
